X: 1
T: Schottisch fr\aan Viksta
T: "Tyska polskan"
C: uppt. Ingvar Norman
C: arr. Alm Nils Ersson
R: shottish
M: 2/4
L: 1/16
Z: 2010 John Chambers <jc:trillian.mit.edu>
S: printed MS of unknown origin p.64 (Svenska l\aatar?)
K: D
V: 1
|: A>(BA)F A2d2 | B>(cB)A B2ed | cdef gece | defd A2F2 |
|  A>(BA)F A2d2 | B>(cB)A B2ed | cdef gece | d2d2 [d4D4] :|
|: {f}a>afd A2df | {f}a2gf g4 | {e}g>gec A2ce | g2{fg}fe f4 |
|  {f}a>afd A2df | {f}a2ga b4 | {a}b>afa a>gec | d2d2 [d4D4] :|
V: 2
|: D2E2 F>GAF | G2F2 E>FGB | A2cB A2G2 | F2D2 A,2B,C |
|  D2E2 F>(GA)F | G2F2 E>(FG)B | A2cB A2G2 | [A2F2]EG [A4F4] :|
|: [A2D2]DE F2A2 | B2^d2 e>e=dB | [e4A4] G2FE | D2Ac d>dAF |
|  [A2D2]DE F2A2 | =c2BA G>GBd | g>fdc B>BcA | F2GE [A4F4] :|
